X:205
T:Over the muir to Maggie
A:Wyresdale, Lancashire
B:H.S.J. Jackson, 1823
L:1/8
M:C
O:England
Z:Richard Robinson 
%%TranscriptionNotes:Some guesswork here owing to imperfect legibility
%%TUNEURL: http://www.leeds.ac.uk/music/Info/RRTuneBk/gettune/000005f2.html
%%ID:000005f2
K:G
f>e |\
d2B2 g2B2 | A2 a4 fe    | d2B2 g2B2 | d2g2d3B | \
c2e2 B2g2 | agfe (fgaf) | gage dBGB | d2g2-g2 ::
f>e|\
dBgA G3B  | A2 a4 fe   | dBgB GABc | dgfe dedB |\
cecA BdBG | Aaga Tfgaf | gage dBGB | d2g2-g2::
